!!!OTL: Exultet
!!!SMS: Va B 43:  Rome, Biblioteca Vallicelliana, B 43
!!!EFL: 23/28
**kern	**text
*	*
*staff5	*staff5
!Va B 43	!Va B 43
*clefGv2	*
*k[b-]	*
=1--	=1--
8F	E-
(8F	xul
8A)	.
8G	-tet
8G	iam
8F	an-
(8F	ge
8G)	.
=2-	=2-
4G	li
.	.
4G	-ca
.	.
(8G	turyy-
4A)	.
.	.
(8A	-ba
=3-	=3-
8G)	.
8F	ce-
(8G	lo
8A	.
4G)	.
.	.
4F	-ryyum.
.	.
=4-	=4-
4F	e-
4A	xul
4G	-tent
4G	di-
=5-	=5-
(4G	vi
4A)	.
.	.
(4A	-na
.	.
4G)	.
=6-	=6-
4F	mi-
(8G	ste
8A)	.
(8G	ryyi
8F)	.
4F	-a
=7-	=7-
8F	et
8F	pryyo
8A	tan-
8G	-ti
8G	ryye-
.	.
8G	-gis
8F	vic-
(16F	to
16G)	.
=8-	=8-
8G	ryyi
8G	-a
8G	tu-
8F	-ba
8G	in-
.	.
16F	to
(16G	-net
16A	.
16G	.
16A)	.
16G	.
=9-	=9-
4F	.
.	.
.	.
.	.
8A	sa-
.	.
(8G	lu
.	.
8A	.
.	.
8G)	.
.	.
8F	ta
8F	-ryyis.
=10-	=10-
(8F	Gau-
.	.
8A)	.
8G	de
8G	-at
8G	se
.	.
8G	tel-
8F	-lus
(16F	tan-
16G)	.
=11-	=11-
8G	-tis
.	.
8G	iryy-
8G	ryya
8G	di
(8G	a
8A)	.
(8A	-ta
8G)	.
=12-	=12-
4F	ful-
.	.
(8G	go
8A)	.
(8G	ryyi
8F)	.
4F	-bus
.	.
=13-	=13-
4F	et
.	.
4F	e-
.	.
4A	teryy
.	.
4G	-ni
=14-	=14-
4G	ryye-
.	.
8G	-gis
8G	splen-
4G	do
.	.
(8G	-ryye.
8A)	.
=15-	=15-
(8A	il-
8G)	.
8F	lu
(8G	stryya
8A	.
8G)	.
4F	-ta
=16-	=16-
8F	to-
8A	ti
8G	-us
8G	oryy-
8G	-bis
8F	se
(8F	sen-
8G)	.
.	.
=17-	=17-
8G	ti
8G	-at
8G	a-
.	.
8F	mi
.	.
(16G	sis
16A	.
8G	.
.	.
8A)	.
.	.
16G	.
16F	.
=18-	=18-
4A	-se
.	.
.	.
.	.
(8G	ca-
.	.
8A	.
.	.
8G)	.
.	.
8F	li
8F	gi
8F	-nem.
=19-	=19-
(8F	Le-
.	.
8A)	.
.	.
8G	te
8G	-turyy
8G	et
.	.
8G	ma-
.	.
8G	-teryy
8F	ec-
.	.
=20-	=20-
(16F	cle
16G)	.
8G	si
8G	-a
8G	tan-
8G	-ti
.	.
8G	lu-
.	.
8G	mi
8G	-nis
=21-	=21-
8G	a-
.	.
8G	doryy
.	.
(16G	na
16A)	.
(16A	-ta
16G)	.
16F	ful-
(16G	go
16A	.
16G)	.
8F	ryyi
.	.
8F	-bus
.	.
=22-	=22-
4F	et
.	.
.	.
.	.
8A	mag-
.	.
8G	-nis
8G	po-
8G	pu
8G	lo
8F	-ryyum
.	.
=23-	=23-
(8F	vo-
.	.
8G)	.
8G	ci
8G	-bus
8F	hec
(16G	au-
16A	.
16G	.
16A)	.
16G	.
16F	.
=24-	=24-
4A	-la
.	.
.	.
.	.
(16G	ryye-
16A	.
8G)	.
.	.
4F	sul
.	.
.	.
.	.
4F	-tet.
.	.
.	.
=25-	=25-
(8F	Qua-
8A)	.
8G	pryyop
8G	-teryy
8F	a-
(16F	stan
16G)	.
8G	ti
8G	-bus
=26-	=26-
4G	vo-
.	.
.	.
4G	-bis
.	.
(8G	fryya-
8A)	.
(8A	-tryyes
8G)	.
=27-	=27-
4F	ka-
(8G	ryyis
8A)	.
4G	si
.	.
4F	-mi
=28-	=28-
4F	ad
4A	tam
4G	mi-
.	.
4G	-ryyam
.	.
=29-	=29-
8G	hu-
8F	-ius
(8F	sanc-
.	.
8G)	.
.	.
8G	-ti
.	.
8G	lu-
.	.
8G	mi
.	.
(16G	-nis
16A)	.
=30-	=30-
(8A	cla-
.	.
8G)	.
.	.
4F	ryyi
.	.
.	.
(8G	ta
.	.
8A	.
8G)	.
8F	-tem
=31-	=31-
16F	u-
8A	-na
.	.
16G	me-
8G	-cum
.	.
16G	que-
8G	-so
.	.
8G	de-
.	.
8G	-i
.	.
16G	om-
16G	ni
16F	po
=32-	=32-
(16F	ten
16G)	.
8G	-tis
.	.
8G	mi-
.	.
16G	se
8F	ryyi
.	.
16G	coryy
8F	di
(16G	-am
16A	.
16G	.
16A)	.
=33-	=33-
8G	.
.	.
8F	.
.	.
8A	in-
.	.
(8G	vo
.	.
8A	.
.	.
8G)	.
.	.
8F	ca
8F	-te.
=34-	=34-
(16F	Ut
16A)	.
8G	qui
.	.
8G	me
.	.
8G	non
.	.
8G	me-
.	.
8F	-is
.	.
(16F	me-
16G)	.
16G	ryyi
16G	-tis
=35-	=35-
16G	in-
8G	-tryya
.	.
16G	nu-
16G	me
8G	-ryyum
.	.
8G	le-
.	.
8F	vi
.	.
(16F	ta
8G)	.
.	.
8G	-ryyum
.	.
=36-	=36-
8G	dig-
.	.
8G	na
.	.
8G	-tus
.	.
(16G	est
16A)	.
(16A	ag-
16G)	.
16F	gryye
(16G	ga
16A	.
16G)	.
8F	-ryye
.	.
=37-	=37-
8A	lu-
8G	mi
4F	-nis
.	.
(8F	su-
8G)	.
4G	-i
.	.
=38-	=38-
4G	gryya-
4G	ti
.	.
4G	-am
.	.
4ryy	.
.	.
=39-	=39-
4F	in-
.	.
(8G	fun
8A	.
8G)	.
8F	den
4F	-do
.	.
=40-	=40-
4A	ce-
8G	ryye
4F	-i
.	.
(8F	hu-
8G)	.
8G	-ius
=41-	=41-
8G	lam-
.	.
8G	pa
.	.
8G	-dem
8F	im-
.	.
(16G	ple
16A	.
8G	.
.	.
8A)	.
.	.
16G	.
16F	.
=42-	=42-
4A	-ryyi
.	.
.	.
.	.
(8G	peryy-
.	.
8A	.
.	.
8G)	.
.	.
8F	fi
.	.
8F	ci
.	.
8F	-at.
.	.
=43-	=43-
(8F	Peryy
8A)	.
8G	do-
8G	mi
8G	-num
8G	no-
.	.
8G	-stryyum
8G	ihe-
=44-	=44-
8F	-sum
(8F	chryyi-
8G)	.
8G	-stum
(8G	fi-
8A)	.
(8A	li
8G)	.
=45-	=45-
4F	-um
.	.
(8G	su-
8A	.
4G)	.
.	.
4F	-um
.	.
=46-	=46-
8F	vi-
8A	ven
4G	-tem
.	.
.	.
8G	at-
4G	-que
.	.
.	.
8F	ryyeg-
=47-	=47-
(16F	nan
8G)	.
.	.
8G	-tem
.	.
8G	in
.	.
8G	u-
.	.
8G	ni
.	.
8G	ta
.	.
8G	-te
.	.
16G	spi-
=48-	=48-
8G	ryyi
.	.
(16G	-tus
16A	.
16G)	.
(16A	sanc-
8G)	.
.	.
8F	-ti
.	.
(16G	de-
16A	.
8G)	.
.	.
8F	-us
.	.
=49-	=49-
8F	Peryy
8G	om-
8F	ni
8F	-a
8G	se-
8F	cu
(8G	-la
.	.
8A	.
.	.
=50-	=50-
8G	.
.	.
8A)	.
.	.
8G	.
8F	.
.	.
4A	se-
.	.
(16G	cu
16A	.
8G)	.
=51-	=51-
4F	lo
.	.
4F	-ryyum.
.	.
4E	A-
.	.
4F	-men.
.	.
=52-	=52-
8F	Do-
(8G	mi
4A)	.
.	.
4B-	-nus
.	.
.	.
(8G	vo-
.	.
8F)	.
.	.
=53-	=53-
(8G	bis
8A	.
8G)	.
8F	-cum
8F	Et
(16G	cum
8A)	.
.	.
8A	spi-
.	.
16B-	ryyi
=54-	=54-
(8G	-tu
4A)	.
.	.
(8G	tu-
4F)	.
.	.
4F	-o.
.	.
=55-	=55-
(16F	Suryy-
16G	.
16A)	.
8B-	.
.	.
16B-	-sum
16A	.
(16G	.
16A)	.
16G	.
8F	.
(8G	coryy-
8A)	.
.	.
=56-	=56-
4F	-da
.	.
.	.
.	.
8F	Ha-
.	.
(8G	be
8A)	.
.	.
.	.
8A	-mus
.	.
8A	ad
8B-	do-
.	.
.	.
=57-	=57-
(4G	mi
.	.
4A)	.
.	.
(4G	-num.
.	.
4F)	.
.	.
=58-	=58-
(16F	Gryya-
16G	.
8A)	.
.	.
(16G	ti
8F)	.
.	.
(16F	-as
8G)	.
.	.
8A	a-
.	.
(16A	ga
8B-	.
.	.
16A)	.
=59-	=59-
16G	-mus
8G	do-
.	.
16F	mi
.	.
(16G	-no
.	.
16A	.
.	.
16G	.
.	.
16A)	.
16G	.
16F	.
(16F	de-
16G)	.
16A	-o
(16G	no-
16A)	.
16G	-stryyo.
.	.
=60-	=60-
(16F	Dig-
16G	.
16A)	.
16A	-num
8A	et
.	.
8B-	iu-
.	.
(8G	-stum
.	.
8A)	.
.	.
(8G	est.
.	.
8F)	.
.	.
=61-	=61-
(16F	Ve-
16G	.
8A)	.
.	.
(8G	-ryye
.	.
8F)	.
.	.
8G	qui-
.	.
8A	-a
8B-	dig-
8A	-num
.	.
=62-	=62-
4G	et
.	.
.	.
4B-	iu-
.	.
.	.
.	.
(8G	-stum
.	.
8A)	.
.	.
4A	est
.	.
.	.
.	.
=63-	=63-
1ryy	.
.	.
.	.
.	.
.	.
.	.
.	.
.	.
.	.
.	.
.	.
=64-	=64-
(8F	in-
.	.
8A)	.
8G	vi
8G	si
8G	bi
.	.
8F	-lem
.	.
(8F	de-
8G)	.
.	.
=65-	=65-
8G	-um
.	.
8G	pa-
.	.
4G	-tryyem
.	.
(8G	om-
8A)	.
(8A	ni
.	.
8G)	.
.	.
=66-	=66-
4F	po
.	.
(8G	ten
.	.
8A	.
.	.
4G)	.
.	.
.	.
.	.
4F	-tem.
.	.
.	.
=67-	=67-
8F	fi-
.	.
8F	li
.	.
8A	um
.	.
8G	-que
.	.
(16F	e-
16G)	.
8G	-ius
.	.
8G	u-
.	.
8G	ni
.	.
=68-	=68-
8G	ge
.	.
8G	ni
.	.
8G	-tum
.	.
8G	do-
.	.
8G	mi
.	.
8G	-num
.	.
8G	no-
.	.
(16G	-stryyum
16A)	.
=69-	=69-
(8A	ihe-
.	.
8G)	.
.	.
8F	-sum
.	.
(8G	chryyi-
8A	.
.	.
8G)	.
4F	-stum
.	.
=70-	=70-
1ryy	.
.	.
.	.
.	.
.	.
.	.
.	.
.	.
.	.
.	.
.	.
=71-	=71-
8F	to-
8G	-to
4A	coryy-
.	.
8G	-dis
8G	ac
(8G	men-
8A)	.
=72-	=72-
(8A	-tis
8G)	.
8F	af-
(8G	fec
8A	.
8G)	.
4F	-tu
=73-	=73-
8F	et
8G	vo-
4F	-cis
.	.
4F	mi-
.	.
.	.
4G	ste
.	.
=74-	=74-
4F	ryyi
.	.
.	.
(8G	-o
8A	.
8G	.
8A)	.
8G	.
.	.
8F	.
.	.
=75-	=75-
4A	peryy-
.	.
(8G	so
8A	.
8G)	.
4F	na
.	.
8F	-ryye.
=76-	=76-
(8F	Qui
.	.
8A)	.
.	.
8G	pryyo
.	.
4G	no-
.	.
4G	-bis
.	.
8G	e-
.	.
=77-	=77-
8G	teryy
8F	-no
(8F	pa-
8G)	.
8G	-tryyi
8G	a-
8G	-de
(8G	de-
=78-	=78-
8A)	.
(8A	bi
8G)	.
8F	-tum
(8G	sol-
8A	.
8G)	.
8F	-vit
=79-	=79-
8F	et
8A	ve-
8G	te
8G	-ryyis
8G	pi-
8G	a
4G	cu
.	.
=80-	=80-
(16G	-li
8A)	.
.	.
(16A	cau-
8G)	.
.	.
8F	ti
.	.
(16G	o
16A	.
8G)	.
.	.
8F	-nem
.	.
16G	pi-
16F	-o
=81-	=81-
8F	cryyu-
.	.
(16G	o
16A	.
16G	.
16A)	.
16G	.
16F	.
8A	-ryye
.	.
(16G	de-
16A	.
16G)	.
8F	teryy
.	.
16F	-sit.
=82-	=82-
(4F	Hec
.	.
4A)	.
.	.
4G	sunt
.	.
(4F	e-
.	.
.	.
=83-	=83-
4G)	.
.	.
4G	-nim
.	.
.	.
.	.
(8G	fe-
8A)	.
.	.
(8A	-sta
.	.
8G)	.
.	.
=84-	=84-
4F	pa-
.	.
.	.
.	.
(8G	scha
.	.
8A)	.
(8G	li
8F)	.
4F	-a
.	.
=85-	=85-
4F	in
4A	qui-
4G	-bus
(8F	ve-
8G)	.
=86-	=86-
4G	-ryyus
.	.
4G	il-
.	.
4G	-le
.	.
(8G	ag-
8A)	.
=87-	=87-
(8A	-nus
8G)	.
8F	oc-
(8G	ci
8A)	.
(8G	di
8F)	.
8F	-turyy
=88-	=88-
8F	e-
.	.
8A	ius
4G	-que
.	.
(8F	san-
8G)	.
8G	gui
8G	-ne
=89-	=89-
8G	po-
8F	-stes
8F	con-
8G	se
8F	cryyan
(16G	-turyy.
16A	.
16G	.
16A)	.
16G	.
16F	.
=90-	=90-
4A	.
.	.
(8G	.
8A	.
8G)	.
8F	.
4F	.
.	.
=91-	=91-
(8F	Hec
.	.
.	.
.	.
8A)	.
.	.
.	.
8G	nox
.	.
8G	est
.	.
8G	in
.	.
8G	qua
.	.
8G	pryyi-
.	.
8G	-mum
.	.
=92-	=92-
8G	pa-
.	.
8G	-tryyes
.	.
8G	no-
.	.
8G	-stryyos
.	.
8G	fi-
.	.
8G	li
.	.
8G	-os
.	.
8G	is-
.	.
=93-	=93-
16F	ryya
32G	-hel
16G	e-
.	.
16G	du
.	.
16G	xi
.	.
16G	-sti
.	.
16G	do-
.	.
16G	mi
.	.
(16G	-ne
.	.
16A)	.
.	.
(16A	de
.	.
16G)	.
.	.
16F	e-
.	.
(16G	gip
.	.
16A	.
.	.
16G)	.
.	.
32F	-to
=94-	=94-
16A	quos
16G	po-
16F	ste
(16F	-a
8G)	.
.	.
16G	ryyu-
8G	-bryyum
.	.
16G	ma-
8G	-ryye
.	.
16G	sic-
16G	-co
16F	ve-
(16F	sti
=95-	=95-
8G)	.
8G	gi
.	.
8G	-o
.	.
8F	tryyan-
.	.
(16G	si
16A	.
16G	.
16A)	.
8G	.
8F	.
.	.
=96-	=96-
8A	-ryye
.	.
(8G	fe-
8A	.
8G)	.
4F	ci
.	.
4F	-sti.
.	.
=97-	=97-
(8F	Hec
.	.
8A)	.
8G	i-
.	.
8G	gi
8F	-turyy
(8F	nox
8G)	.
.	.
8G	est
.	.
=98-	=98-
8G	que
4G	pec-
.	.
.	.
.	.
(8G	ca
.	.
8A)	.
(8A	to
8G)	.
8F	-ryyum
.	.
=99-	=99-
(8G	te-
4A)	.
.	.
(8G	ne
.	.
4F)	.
.	.
.	.
.	.
4F	-bryyas
.	.
.	.
.	.
=100-	=100-
4F	co-
.	.
.	.
8A	lum
4G	-ne
.	.
.	.
8G	il-
8G	lu
8G	mi
=101-	=101-
4G	na
.	.
8F	ti
.	.
(16G	o
16A	.
16G	.
16A)	.
16G	.
16F	.
4A	-ne
.	.
.	.
.	.
=102-	=102-
(8G	puryy-
.	.
8A	.
4G)	.
.	.
.	.
4F	ga
.	.
.	.
.	.
4F	-vit.
.	.
=103-	=103-
(8F	Hec
.	.
8A)	.
.	.
8G	nox
.	.
(8F	est
.	.
8G)	.
.	.
8G	que
.	.
8G	ho-
.	.
8G	di
.	.
=104-	=104-
8G	-e
8G	peryy
8G	u-
.	.
8G	ni
.	.
8G	veryy
.	.
8F	-sum
.	.
(16F	mun-
16G)	.
8G	-dum
.	.
=105-	=105-
8G	in
(16G	chryyi-
8A)	.
.	.
(16A	-sto
16G)	.
8F	cryye-
.	.
(16G	den
8A	.
.	.
8G)	.
.	.
8F	-tes
=106-	=106-
4F	a
.	.
8A	vi-
8G	ti
8F	-is
(8F	se-
8G)	.
.	.
8G	cu
.	.
=107-	=107-
8G	-li
.	.
8G	et
.	.
8G	ca-
8G	li
8G	gi
.	.
8G	-ne
8G	pec-
8G	ca
=108-	=108-
8G	to
.	.
(16G	-ryyum
8A)	.
.	.
(16A	se-
8G)	.
8F	gryye
(16G	ga
16A	.
8G)	.
.	.
8F	-tos
.	.
=109-	=109-
8A	ryyed-
.	.
8F	-dit
.	.
(8G	gryya-
8A)	.
(8G	ti
8F)	.
4F	-e
.	.
=110-	=110-
4G	so-
.	.
4F	ci
.	.
(16G	-at
16A	.
16G	.
16A)	.
8G	.
.	.
8F	.
.	.
=111-	=111-
4A	sanc-
.	.
.	.
.	.
(8G	ti
.	.
8A	.
.	.
8G)	.
.	.
8F	ta
.	.
4F	-ti.
.	.
.	.
.	.
=112-	=112-
(8F	Hec
.	.
8A)	.
.	.
4G	nox
.	.
.	.
(8F	est
.	.
8G)	.
.	.
8G	in
.	.
8G	qua
.	.
=113-	=113-
4G	de-
.	.
4G	stryyuc
.	.
4G	-tis
.	.
(8G	vin-
8A)	.
=114-	=114-
(8A	cu
8G)	.
4F	-lis
.	.
(8G	moryy-
8A	.
8G)	.
8F	-tis
=115-	=115-
4A	chryyi-
.	.
4G	-stus
4F	ab
.	.
4G	in-
.	.
=116-	=116-
4F	fe
.	.
4F	-ryyis
.	.
.	.
.	.
(8G	vic-
8A	.
8G	.
8A)	.
=117-	=117-
8G	.
.	.
8F	.
8A	-toryy
(8G	a-
8A	.
.	.
8G)	.
8F	scen
8F	-dit.
=118-	=118-
4A	Ni-
.	.
4ryy	.
4G	-chil
.	.
4A	e-
.	.
=119-	=119-
4G	-nim
(8F	.
8G)	.
(8G	na-
8A)	.
(8A	.
8G)	.
=120-	=120-
4F	-sci
.	.
(8G	pryyo-
8A)	.
(8G	fu
8F)	.
4F	-it
.	.
=121-	=121-
4F	ni-
.	.
4F	-si
.	.
4G	ryye-
.	.
4F	di
.	.
=122-	=122-
(8G	-mi
8A	.
8G	.
8A)	.
4G	.
.	.
4F	.
.	.
=123-	=123-
4A	pryyo-
.	.
(8G	fu
8A	.
8G)	.
8F	is
4F	-set.
.	.
=124-	=124-
(8F	O
.	.
4A)	.
.	.
8G	mi-
.	.
4G	-ryya
.	.
4G	ciryy-
.	.
=125-	=125-
4F	-ca
.	.
.	.
.	.
4G	nos
.	.
.	.
8G	tu-
.	.
8G	-e
8G	pi-
.	.
8G	e
.	.
=126-	=126-
(16G	ta
8A)	.
.	.
(16A	-tis
8G)	.
.	.
8F	di-
.	.
(16G	gna
8A)	.
.	.
(16G	ti
8F)	.
.	.
8F	-o.
.	.
=127-	=127-
4A	O
.	.
.	.
.	.
8G	i-
.	.
8A	ne
8G	sti
(16F	ma
16G)	.
8G	bi
.	.
8G	-lis
=128-	=128-
8G	di-
8G	lec
8G	ti
(8G	-o
4A)	.
.	.
.	.
.	.
(8A	ca-
.	.
8G)	.
.	.
=129-	=129-
4F	ryyi
.	.
.	.
.	.
(8G	ta
.	.
8A	.
.	.
4G)	.
.	.
.	.
4F	-tis
.	.
.	.
.	.
=130-	=130-
8F	ut
8G	seryy-
.	.
4F	-vum
.	.
.	.
.	.
8F	ryye-
.	.
4G	di
.	.
.	.
.	.
8G	me
.	.
=131-	=131-
4G	-ryyes
.	.
8G	fi-
.	.
4F	li
.	.
.	.
.	.
(16G	-um
16A	.
16G	.
16A)	.
16G	.
16F	.
=132-	=132-
4A	tryya-
.	.
.	.
.	.
(8G	di
8A	.
8G)	.
4F	di
.	.
8F	-sti.
=133-	=133-
(4F	O
.	.
4A)	.
.	.
4G	ceryy-
.	.
4G	-te
.	.
=134-	=134-
8G	ne-
.	.
8F	ces
.	.
(8F	sa
.	.
8G)	.
.	.
8G	ryyi
.	.
8G	-um
.	.
(8G	a-
8A)	.
.	.
=135-	=135-
(8A	-de
8G)	.
.	.
8F	pec-
.	.
(8G	ca
8A	.
4G)	.
.	.
.	.
8F	-tum
=136-	=136-
16G	no-
8G	-stryyum
.	.
8F	quod
.	.
16G	chryyi-
8F	-sti
.	.
(16G	moryy-
16A	.
16G	.
16A)	.
16G	.
16F	.
8A	-te
.	.
=137-	=137-
(8G	de-
.	.
8A	.
8G)	.
.	.
8F	le
.	.
8F	-tum
.	.
8F	est.
.	.
4A	O
.	.
.	.
.	.
=138-	=138-
(8A	fe-
.	.
8G)	.
8F	-lix
.	.
(8G	cul-
8A	.
8G)	.
4F	-pa
.	.
=139-	=139-
8F	que
8A	ta-
.	.
8G	-lem
.	.
8F	ac
(8F	tan-
.	.
8G)	.
8G	-tum
8G	me-
=140-	=140-
8G	ryyu
4G	-it
.	.
8G	ha-
8F	be
.	.
(16G	-ryye
16A	.
16G	.
16A)	.
16G	.
16F	.
=141-	=141-
4A	ryye-
.	.
(8G	demp
8A	.
8G)	.
8F	to
4F	-ryyem.
.	.
=142-	=142-
(8F	O
.	.
8A)	.
.	.
8G	ve-
8G	-ryye
8G	be-
8G	a
.	.
8F	-ta
.	.
8G	nox
.	.
=143-	=143-
8G	que
8G	so-
8G	-la
8G	me-
.	.
8G	ryyu
.	.
8F	-it
.	.
(16F	sci-
16G)	.
8G	-ryye
.	.
=144-	=144-
(8G	tem-
.	.
8A)	.
.	.
(8A	-pus
.	.
8G)	.
8F	et
.	.
(16G	ho-
16A	.
8G)	.
8F	-ryyam
=145-	=145-
8F	in
4F	qua
.	.
8A	chryyi-
8G	-stus
8G	ab
8G	in-
.	.
8F	fe
.	.
=146-	=146-
(8G	-ryyis
8A	.
8G	.
8A)	.
4G	.
.	.
.	.
.	.
4F	.
.	.
.	.
.	.
=147-	=147-
4A	ryye-
.	.
.	.
(8G	suryy
.	.
8A	.
8G)	.
8F	ryye
.	.
4F	-xit.
.	.
.	.
.	.
=148-	=148-
(8F	Hec
.	.
8A)	.
.	.
8G	est
.	.
(8F	nox
.	.
8G)	.
.	.
8G	de
.	.
8F	qua
.	.
(16G	scryyip-
16A)	.
=149-	=149-
(16G	-tum
16F)	.
8F	est.
8A	et
8G	nox
8G	ut
8G	di-
.	.
8G	-es
(16G	il-
16A)	.
=150-	=150-
(8A	lu
.	.
8G)	.
.	.
8F	mi
.	.
(8G	na
.	.
8A)	.
.	.
(8G	bi
.	.
8F)	.
.	.
8F	-turyy
=151-	=151-
8A	et
.	.
8G	nox
8G	il-
8G	lu
8G	mi
8G	na
8G	ti
.	.
8F	-o
.	.
=152-	=152-
(8F	me-
.	.
8G)	.
8G	-a
8G	in
8F	de-
.	.
(16G	li
16A	.
16G	.
16A)	.
16G	.
16F	.
=153-	=153-
4A	ci
.	.
.	.
(8G	-is
.	.
8A	.
8G)	.
8F	me-
4F	-is.
.	.
=154-	=154-
(8F	Hu-
4A)	.
.	.
8G	-ius
(8F	i-
8G)	.
8G	gi
8G	-turyy
=155-	=155-
4G	noc-
.	.
.	.
.	.
4G	-tis
.	.
.	.
.	.
(8G	sanc-
.	.
8A)	.
.	.
(8A	ti
.	.
8G)	.
.	.
=156-	=156-
4F	fi
.	.
.	.
.	.
(8G	ca
.	.
8A)	.
.	.
(8G	ti
.	.
8F)	.
.	.
4F	-o
.	.
.	.
=157-	=157-
4A	fu-
.	.
.	.
4F	-gat
.	.
.	.
(4G	sce-
.	.
4A)	.
.	.
.	.
=158-	=158-
(4G	le
.	.
4F)	.
.	.
4F	-ryya
.	.
4A	cul-
.	.
=159-	=159-
4F	-pas
.	.
(8G	la-
8A	.
4G)	.
4F	-vat
=160-	=160-
8F	et
.	.
8A	ryyed-
.	.
8G	-dit
8G	in-
.	.
8G	no
(16G	cen
8A)	.
.	.
(8A	ti
.	.
16G)	.
=161-	=161-
8F	-am
.	.
(8G	lap-
.	.
8A	.
.	.
8G)	.
4F	-sis.
.	.
.	.
.	.
4A	mes-
.	.
=162-	=162-
(8A	-tis
.	.
8G)	.
8F	le-
.	.
(8G	ti
8A)	.
(8G	ti
8F)	.
8F	-am.
=163-	=163-
4A	fu-
.	.
4F	-gat
.	.
(4G	ho-
.	.
4A)	.
.	.
.	.
=164-	=164-
(8G	di
8F)	.
4F	-a
.	.
8A	con-
8A	coryy
(8A	di
8G)	.
.	.
=165-	=165-
4F	-am
.	.
(8G	pa-
8A	.
4G)	.
.	.
4F	-ryyat.
=166-	=166-
4F	et
.	.
(8G	curyy-
.	.
8A	.
.	.
8G	.
.	.
8A)	.
8G	.
.	.
8F	.
=167-	=167-
4A	-vat
.	.
(4G	im-
.	.
4A	.
.	.
4G)	.
.	.
=168-	=168-
4F	pe
.	.
.	.
.	.
4F	ryyi
.	.
.	.
.	.
4F	-a.
.	.
.	.
.	.
4ryy	.
.	.
.	.
.	.
=169-	=169-
(8F	In
.	.
8A)	.
.	.
4G	hu-
.	.
.	.
.	.
4G	-ius
.	.
.	.
.	.
4G	i-
.	.
.	.
.	.
=170-	=170-
4G	gi
.	.
.	.
.	.
4G	-turyy
.	.
.	.
.	.
4G	noc-
.	.
.	.
.	.
4F	-tis
.	.
.	.
.	.
=171-	=171-
(4F	gryya-
.	.
.	.
.	.
4G)	.
.	.
.	.
.	.
4G	ti
.	.
.	.
.	.
4G	-am
.	.
.	.
.	.
=172-	=172-
8G	su-
.	.
8G	sci
(16G	-pe
16A)	.
(16A	sanc-
16G)	.
8F	-te
(16G	pa-
16A	.
16G)	.
8F	-teryy
.	.
16F	in-
=173-	=173-
8A	cen
8G	-si
(8F	hu-
.	.
8G)	.
.	.
8G	-ius
.	.
16G	sa-
16G	cryyi
8G	fi
.	.
8G	ci
.	.
=174-	=174-
(16G	-um
8A)	.
.	.
(16A	ve-
8G)	.
8F	speryy
(8G	ti
.	.
8A	.
8G)	.
8F	-num
=175-	=175-
8F	Quod
8F	ti-
8F	-bi
8A	in
8G	hac
8F	ce-
.	.
(16F	ryye
16G)	.
8G	-i
.	.
=176-	=176-
8G	o-
8G	bla
8G	ti
(16G	o
8A)	.
.	.
(16A	-ne
8G)	.
.	.
16F	sol-
(16G	lem
16A	.
16G)	.
=177-	=177-
8F	-ni
.	.
8F	peryy
.	.
8F	mi-
.	.
8F	nis
8A	tryyo
.	.
8G	-ryyum
(16F	ma-
16G)	.
8G	-nus
.	.
=178-	=178-
8G	de
8G	o-
(16G	pe
8A)	.
.	.
(16A	ryyi
8G)	.
8F	-bus
(8G	a-
.	.
8A)	.
.	.
=179-	=179-
4G	-pum
.	.
8F	sa-
8F	cryyo
8G	sanc
8F	-ta
.	.
(16G	ryyed-
16A	.
16G	.
16A)	.
=180-	=180-
16G	.
8F	.
.	.
(8G	-dit
.	.
16A)	.
(16G	ec-
16A	.
8G)	.
8F	cle
8F	si
8F	-a.
=181-	=181-
(8F	Sed
.	.
8A)	.
.	.
8G	iam
.	.
8G	co-
.	.
8G	lum
.	.
8F	-ne
.	.
(8F	hu-
.	.
8G)	.
=182-	=182-
4G	-ius
.	.
4G	pryye-
.	.
.	.
.	.
(8G	co
8A)	.
(8A	ni
8G)	.
=183-	=183-
4F	-a
.	.
(8G	no-
8A)	.
(8G	vi
8F)	.
4F	-mus
=184-	=184-
8F	quam
8F	in
8F	ho-
8A	no
8G	-ryye
.	.
(8F	de-
.	.
8G)	.
8G	-i
.	.
=185-	=185-
8G	ryyu-
.	.
8G	ti
.	.
8F	-lans
.	.
.	.
(8G	i-
.	.
.	.
.	.
8A	.
.	.
.	.
.	.
8G	.
.	.
.	.
16A)	.
.	.
8G	.
.	.
.	.
.	.
16F	.
.	.
=186-	=186-
4A	-gnis
.	.
.	.
.	.
.	.
.	.
(8G	ac-
.	.
.	.
8A	.
.	.
.	.
8G)	.
.	.
8F	cen
.	.
4F	-dit.
.	.
.	.
.	.
.	.
.	.
.	.
=187-	=187-
(8F	Qui
8A)	.
4G	li-
.	.
4G	-cet
.	.
4G	di-
.	.
=188-	=188-
(4G	vi
.	.
4A)	.
.	.
(4A	-sus
.	.
4G)	.
.	.
=189-	=189-
4F	in
.	.
(8G	paryy-
8A	.
4G)	.
.	.
.	.
4F	-tes
.	.
=190-	=190-
8F	mu-
8F	tu
8A	a
4G	-ti
.	.
(4F	lu-
.	.
8G)	.
=191-	=191-
8G	mi
8G	-nis
8G	de-
.	.
8F	tryyi
.	.
(16G	men
16A	.
16G	.
16A)	.
8G	.
.	.
8F	.
.	.
=192-	=192-
4A	-ta
.	.
.	.
.	.
(8G	non
.	.
8A	.
.	.
8G)	.
.	.
4F	no-
.	.
.	.
8F	-vit.
.	.
=193-	=193-
1ryy	.
.	.
.	.
.	.
.	.
.	.
.	.
.	.
.	.
.	.
=194-	=194-
1ryy	.
.	.
.	.
.	.
.	.
.	.
.	.
.	.
=195-	=195-
1ryy	.
.	.
.	.
.	.
.	.
.	.
.	.
.	.
.	.
.	.
.	.
=196-	=196-
1ryy	.
.	.
.	.
.	.
.	.
.	.
.	.
.	.
.	.
.	.
.	.
.	.
.	.
.	.
.	.
.	.
=197-	=197-
1ryy	.
.	.
.	.
.	.
.	.
.	.
.	.
.	.
.	.
.	.
.	.
.	.
.	.
.	.
.	.
.	.
=198-	=198-
1ryy	.
.	.
.	.
.	.
.	.
.	.
.	.
.	.
.	.
.	.
.	.
.	.
.	.
.	.
.	.
=199-	=199-
1ryy	.
.	.
.	.
.	.
.	.
.	.
.	.
.	.
.	.
.	.
=200-	=200-
1ryy	.
.	.
.	.
.	.
.	.
.	.
.	.
.	.
.	.
.	.
.	.
.	.
.	.
.	.
=201-	=201-
1ryy	.
.	.
.	.
.	.
.	.
.	.
.	.
.	.
.	.
.	.
.	.
.	.
.	.
.	.
=202-	=202-
1ryy	.
.	.
.	.
.	.
.	.
.	.
.	.
.	.
.	.
.	.
=203-	=203-
1ryy	.
.	.
.	.
.	.
.	.
.	.
.	.
.	.
.	.
.	.
.	.
.	.
.	.
=204-	=204-
1ryy	.
.	.
.	.
.	.
.	.
.	.
.	.
.	.
=205-	=205-
1ryy	.
.	.
.	.
.	.
.	.
.	.
.	.
.	.
.	.
.	.
=206-	=206-
1ryy	.
.	.
.	.
.	.
.	.
.	.
.	.
.	.
.	.
.	.
.	.
.	.
.	.
.	.
=207-	=207-
1ryy	.
.	.
.	.
.	.
.	.
.	.
.	.
.	.
.	.
.	.
.	.
.	.
=208-	=208-
1ryy	.
.	.
.	.
.	.
.	.
.	.
.	.
.	.
=209-	=209-
1ryy	.
.	.
.	.
.	.
.	.
.	.
.	.
.	.
.	.
.	.
.	.
.	.
.	.
=210-	=210-
1ryy	.
.	.
.	.
.	.
.	.
.	.
.	.
.	.
=211-	=211-
1ryy	.
.	.
.	.
.	.
.	.
.	.
.	.
.	.
.	.
=212-	=212-
1ryy	.
.	.
.	.
.	.
.	.
.	.
.	.
.	.
.	.
.	.
.	.
.	.
.	.
=213-	=213-
1ryy	.
.	.
.	.
.	.
.	.
.	.
.	.
.	.
.	.
=214-	=214-
1ryy	.
.	.
.	.
.	.
.	.
.	.
.	.
.	.
.	.
.	.
.	.
.	.
=215-	=215-
1ryy	.
.	.
.	.
.	.
.	.
.	.
.	.
.	.
.	.
.	.
.	.
.	.
.	.
.	.
.	.
.	.
=216-	=216-
1ryy	.
.	.
.	.
.	.
.	.
.	.
.	.
.	.
.	.
.	.
.	.
.	.
.	.
=217-	=217-
1ryy	.
.	.
.	.
.	.
.	.
.	.
.	.
.	.
=218-	=218-
1ryy	.
.	.
.	.
.	.
.	.
.	.
.	.
.	.
.	.
.	.
.	.
.	.
.	.
.	.
=219-	=219-
1ryy	.
.	.
.	.
.	.
.	.
.	.
.	.
.	.
.	.
.	.
.	.
=220-	=220-
1ryy	.
.	.
.	.
.	.
.	.
.	.
.	.
.	.
.	.
.	.
.	.
.	.
=221-	=221-
1ryy	.
.	.
.	.
.	.
.	.
.	.
.	.
.	.
.	.
.	.
.	.
.	.
.	.
=222-	=222-
1ryy	.
.	.
.	.
.	.
.	.
.	.
.	.
.	.
.	.
.	.
.	.
.	.
.	.
.	.
=223-	=223-
1ryy	.
.	.
.	.
.	.
.	.
.	.
.	.
.	.
.	.
.	.
=224-	=224-
1ryy	.
.	.
.	.
.	.
.	.
.	.
.	.
.	.
.	.
.	.
.	.
.	.
.	.
.	.
=225-	=225-
1ryy	.
.	.
.	.
.	.
.	.
.	.
.	.
.	.
.	.
.	.
.	.
=226-	=226-
1ryy	.
.	.
.	.
.	.
.	.
.	.
.	.
.	.
.	.
.	.
.	.
.	.
.	.
.	.
.	.
.	.
=227-	=227-
1ryy	.
.	.
.	.
.	.
.	.
.	.
.	.
.	.
.	.
.	.
.	.
=228-	=228-
1ryy	.
.	.
.	.
.	.
.	.
.	.
.	.
.	.
.	.
=229-	=229-
1ryy	.
.	.
.	.
.	.
.	.
=230-	=230-
1ryy	.
.	.
.	.
.	.
.	.
.	.
.	.
.	.
=231-	=231-
1ryy	.
.	.
.	.
.	.
.	.
.	.
.	.
=232-	=232-
1ryy	.
.	.
.	.
.	.
.	.
.	.
.	.
.	.
=233-	=233-
1ryy	.
.	.
.	.
.	.
.	.
.	.
.	.
.	.
=234-	=234-
1ryy	.
.	.
.	.
.	.
.	.
.	.
.	.
.	.
=235-	=235-
1ryy	.
.	.
.	.
.	.
.	.
.	.
.	.
.	.
=236-	=236-
1ryy	.
.	.
.	.
.	.
.	.
.	.
.	.
.	.
.	.
.	.
.	.
.	.
.	.
=237-	=237-
1ryy	.
.	.
.	.
.	.
.	.
.	.
.	.
.	.
=238-	=238-
1ryy	.
.	.
.	.
.	.
.	.
.	.
.	.
.	.
=239-	=239-
1ryy	.
.	.
.	.
.	.
.	.
.	.
.	.
.	.
=240-	=240-
1ryy	.
.	.
.	.
.	.
.	.
.	.
.	.
.	.
.	.
.	.
.	.
=241-	=241-
1ryy	.
.	.
.	.
.	.
.	.
.	.
.	.
.	.
.	.
=242-	=242-
1ryy	.
.	.
.	.
.	.
.	.
.	.
.	.
.	.
.	.
.	.
.	.
.	.
.	.
.	.
.	.
=243-	=243-
1ryy	.
.	.
.	.
.	.
.	.
.	.
.	.
.	.
.	.
.	.
.	.
.	.
.	.
.	.
=244-	=244-
1ryy	.
.	.
.	.
.	.
.	.
.	.
=245-	=245-
1ryy	.
.	.
.	.
.	.
.	.
.	.
.	.
.	.
=246-	=246-
1ryy	.
.	.
.	.
.	.
.	.
.	.
.	.
.	.
.	.
=247-	=247-
1ryy	.
.	.
.	.
.	.
.	.
.	.
.	.
.	.
.	.
.	.
.	.
.	.
.	.
=248-	=248-
1ryy	.
.	.
.	.
.	.
.	.
.	.
.	.
.	.
.	.
.	.
.	.
.	.
.	.
=249-	=249-
1ryy	.
.	.
.	.
.	.
.	.
.	.
.	.
=250-	=250-
1ryy	.
.	.
.	.
.	.
.	.
.	.
.	.
.	.
.	.
=251-	=251-
1ryy	.
.	.
.	.
.	.
.	.
.	.
.	.
.	.
.	.
.	.
.	.
.	.
=252-	=252-
1ryy	.
.	.
.	.
.	.
.	.
.	.
.	.
=253-	=253-
1ryy	.
.	.
.	.
.	.
.	.
.	.
.	.
.	.
.	.
.	.
.	.
.	.
.	.
=254-	=254-
1ryy	.
.	.
.	.
.	.
.	.
.	.
.	.
.	.
.	.
.	.
.	.
.	.
=255-	=255-
1ryy	.
.	.
.	.
.	.
.	.
.	.
.	.
.	.
.	.
.	.
.	.
.	.
=256-	=256-
1ryy	.
.	.
.	.
.	.
.	.
.	.
.	.
.	.
.	.
.	.
.	.
=257-	=257-
1ryy	.
.	.
.	.
.	.
.	.
.	.
.	.
.	.
.	.
.	.
.	.
.	.
=258-	=258-
1ryy	.
.	.
.	.
.	.
.	.
.	.
.	.
.	.
.	.
=259-	=259-
1ryy	.
.	.
.	.
.	.
.	.
.	.
.	.
.	.
=260-	=260-
1ryy	.
.	.
.	.
.	.
.	.
.	.
.	.
.	.
=261-	=261-
1ryy	.
.	.
.	.
.	.
.	.
.	.
.	.
.	.
.	.
=262-	=262-
1ryy	.
.	.
.	.
.	.
.	.
.	.
.	.
=263-	=263-
1ryy	.
.	.
.	.
.	.
.	.
.	.
.	.
.	.
.	.
.	.
.	.
.	.
=264-	=264-
1ryy	.
.	.
.	.
.	.
.	.
.	.
.	.
.	.
.	.
.	.
.	.
.	.
.	.
=265-	=265-
1ryy	.
.	.
.	.
.	.
.	.
.	.
.	.
.	.
.	.
.	.
.	.
=266-	=266-
1ryy	.
.	.
.	.
.	.
.	.
.	.
.	.
.	.
.	.
.	.
.	.
.	.
=267-	=267-
1ryy	.
.	.
.	.
.	.
.	.
.	.
.	.
.	.
.	.
.	.
.	.
=268-	=268-
1ryy	.
.	.
.	.
.	.
.	.
.	.
.	.
.	.
=269-	=269-
1ryy	.
.	.
.	.
.	.
.	.
.	.
.	.
.	.
.	.
.	.
.	.
.	.
=270-	=270-
1ryy	.
.	.
.	.
.	.
.	.
.	.
.	.
.	.
.	.
.	.
.	.
.	.
=271-	=271-
1ryy	.
.	.
.	.
.	.
.	.
.	.
.	.
.	.
.	.
.	.
.	.
.	.
.	.
.	.
.	.
.	.
=272-	=272-
1ryy	.
.	.
.	.
.	.
.	.
.	.
.	.
.	.
.	.
.	.
.	.
.	.
.	.
.	.
.	.
.	.
=273-	=273-
1ryy	.
.	.
.	.
.	.
.	.
.	.
.	.
.	.
.	.
.	.
.	.
.	.
.	.
.	.
.	.
.	.
.	.
.	.
.	.
=274-	=274-
1ryy	.
.	.
.	.
.	.
.	.
.	.
.	.
.	.
.	.
.	.
.	.
.	.
.	.
=275-	=275-
1ryy	.
.	.
.	.
.	.
.	.
.	.
.	.
.	.
.	.
.	.
.	.
.	.
.	.
.	.
=276-	=276-
1ryy	.
.	.
.	.
.	.
.	.
.	.
.	.
=277-	=277-
4F	O-
.	.
.	.
.	.
8A	ryya
.	.
4G	-mus
.	.
.	.
8G	te
.	.
(8F	do-
.	.
8G)	.
.	.
=278-	=278-
8G	mi
8G	-ne
8G	ut
(8G	ce-
.	.
8A)	.
.	.
(8A	ryye
8G)	.
.	.
8F	-us
=279-	=279-
(8G	i-
8A	.
8G)	.
8F	-ste
4F	in
.	.
4F	ho-
=280-	=280-
4A	no
.	.
4G	-ryyem
.	.
(8F	no-
8G)	.
4G	mi
.	.
=281-	=281-
4G	-nis
.	.
.	.
4G	tu-
.	.
(8G	-i
8A)	.
.	.
(8A	con-
8G)	.
=282-	=282-
4F	se
.	.
.	.
(8G	cryya
.	.
8A	.
4G)	.
.	.
.	.
4F	-tus
.	.
=283-	=283-
8F	ad
8A	noc-
8G	-tis
(16F	hu-
16G)	.
8G	-ius
8G	ca-
8G	li
8G	gi
=284-	=284-
(16G	-nem
16A)	.
(16A	de-
16G)	.
8F	stryyu
.	.
(16G	en
16A	.
16G)	.
8F	-dam
.	.
16F	in-
16F	de
16G	fi
8F	ci
.	.
=285-	=285-
(16G	-ens
16A	.
16G	.
16A)	.
16G	.
16F	.
(16G	peryy-
8A)	.
.	.
(16G	se
16A	.
8G)	.
.	.
8F	ve
.	.
16F	-ryyet.
=286-	=286-
(8F	At-
8A)	.
8G	-que
8G	in
8F	ho-
(8F	do
8G)	.
8G	-ryyem
=287-	=287-
(8G	su-
8A)	.
(8A	a
8G)	.
8F	vi
(8G	ta
8A	.
8G)	.
=288-	=288-
4F	-tis
.	.
4F	ac-
.	.
4G	cep
.	.
4F	-tus
.	.
=289-	=289-
8F	su-
8G	peryy
.	.
8F	-nis
8F	lu-
8F	mi
8G	na
.	.
8F	ryyi
(8G	-bus
=290-	=290-
8A	.
8G	.
8A)	.
8G	.
4F	.
.	.
4A	mi-
.	.
=291-	=291-
(8G	sce
8A	.
4G)	.
.	.
4F	a
.	.
4F	-turyy.
.	.
=292-	=292-
(8F	Flam-
.	.
8A)	.
.	.
8G	-mas
.	.
(16F	e-
16G)	.
8G	-ius
8G	lu-
.	.
8G	ci
.	.
8G	-feryy
.	.
=293-	=293-
4G	ma-
.	.
4G	tu
.	.
.	.
.	.
(8G	ti
.	.
8A)	.
.	.
(8A	-nus
8G)	.
=294-	=294-
4F	in-
.	.
(8G	ve
8A)	.
(8G	ni
8F)	.
4F	-at
=295-	=295-
8A	il-
.	.
8G	-le
8A	in-
.	.
8F	-quam
.	.
(16G	lu-
8A)	.
.	.
(16G	ci
8F)	.
.	.
8F	-feryy
.	.
=296-	=296-
4G	qui
.	.
.	.
(8G	ne-
.	.
4A)	.
.	.
.	.
.	.
(8A	-scit
.	.
4G)	.
.	.
.	.
=297-	=297-
4F	oc-
.	.
(8G	ca
8A	.
4G)	.
.	.
4F	-sum.
=298-	=298-
8G	Il-
.	.
8G	-le
.	.
8G	qui
.	.
8G	ryye-
.	.
(16G	gryyes
16A)	.
(16A	-sus
16G)	.
8F	ab
.	.
(16G	in-
16A)	.
=299-	=299-
(16G	fe
16F)	.
8F	-ryyis
.	.
8F	hu-
.	.
8A	ma
.	.
16G	-no
(16F	ge-
16G)	.
8G	ne
.	.
8G	-ryyi
.	.
16F	se-
=300-	=300-
(16G	ryye
16A	.
16G	.
16A)	.
16G	.
16F	.
8A	-nus
.	.
(16G	il-
16A	.
8G)	.
.	.
8F	lu
.	.
8F	-xit.
.	.
=301-	=301-
(4F	Pryye-
4A)	.
4G	ca
4G	-muryy
=302-	=302-
4G	eryy-
.	.
4G	-go
.	.
4F	te
(8F	do-
8G)	.
=303-	=303-
4G	mi
4G	-ne
.	.
4G	ut
4ryy	.
=304-	=304-
8G	nos
8G	fa-
8G	mu
8F	-los
.	.
(8F	tu-
8G)	.
8G	-os
(16G	om-
16A)	.
=305-	=305-
(16A	-nem
16G)	.
16F	(que)
(16G	cle-
16A	.
16G)	.
8F	-ryyum
8F	et
.	.
16G	de-
16F	vo
(16G	tis
16A	.
16G	.
16A)	.
=306-	=306-
8G	.
.	.
8F	.
.	.
8A	si
.	.
(16G	-mum
16A	.
8G)	.
.	.
8F	po-
.	.
8F	pu
.	.
8F	-lum
.	.
=307-	=307-
(8F	u-
8A)	.
8G	-na
8G	cum
8G	ve-
8G	ne
8G	ryya
8G	bi
=308-	=308-
8G	lis
8G	si
8G	-mo
8G	fa-
8G	mu
8G	-lo
8G	tu-
8G	-o
=309-	=309-
8G	pa-
(8G	-pa
8A)	.
(8A	no-
8G)	.
8F	-stryyo.
(16G	ill.
16A	.
16G)	.
16F	.
=310-	=310-
8F	in
4A	his
.	.
8G	pa-
(8F	sha
8G)	.
8G	li
8G	-bus
=311-	=311-
8G	fe-
8G	-stis
8G	as-
8G	si
8G	du
8G	-a
8G	pryyo-
8G	tec
=312-	=312-
8G	ti
8G	o
4G	-ne
.	.
8G	ryye-
8G	ge
4G	-ryye
=313-	=313-
8G	gu-
8G	beryy
4G	na
.	.
4G	-ryye
.	.
.	.
4G	et
.	.
.	.
=314-	=314-
8G	con-
.	.
8F	seryy
(8G	va
8A	.
.	.
8G	.
.	.
8A)	.
.	.
8G	.
8F	.
.	.
=315-	=315-
4A	-ryye
.	.
.	.
(8G	dig-
8A	.
.	.
8G)	.
.	.
8F	ne
.	.
4F	-ryyis.
.	.
.	.
.	.
=316-	=316-
(16F	Re-
16A)	.
8G	spi
.	.
8G	-ce
8G	e-
.	.
8G	ti
.	.
8G	-am
.	.
8G	et
.	.
16G	de-
16G	vo
=317-	=317-
8G	tis
.	.
16G	si
8G	-mum
.	.
16G	fa-
16G	mu
8F	-lum
.	.
(16F	tu-
16G)	.
8G	-um
.	.
16G	im-
8G	pe
.	.
=318-	=318-
8G	ryya
.	.
8G	to
.	.
(16G	-ryyem
16A)	.
(16A	no-
16G)	.
4F	-stryyum.
.	.
.	.
.	.
(16G	ill.
16A)	.
(16G	.
16F)	.
=319-	=319-
8A	cu-
8G	-ius
8F	tu
(16F	de-
16G)	.
8G	-us
.	.
8G	de-
.	.
8G	si
.	.
8G	de
.	.
=320-	=320-
8G	ryyi
8G	-i
(16G	vo-
16A)	.
(16A	-ta
16G)	.
8F	pryye-
.	.
(16G	no
16A	.
16G)	.
16F	-scens
8A	i-
=321-	=321-
8G	nef
.	.
(16F	fa
16G)	.
8G	bi
.	.
8G	-li
8G	pi-
8G	e
.	.
8G	ta
.	.
8G	-te
.	.
=322-	=322-
8G	et
.	.
8G	mi-
8G	se
8G	ryyi
8G	coryy
8G	di
.	.
16G	-e
8G	tu-
.	.
16G	-e
=323-	=323-
8G	mu-
.	.
8G	ne
.	.
8G	-ryye
.	.
8G	tryyan-
8G	quil
.	.
8G	-lum
.	.
8F	peryy-
(16F	pe
16G)	.
=324-	=324-
8G	tu
.	.
8G	-e
.	.
(16G	pa-
16A)	.
(16A	-cis
16G)	.
8F	et
.	.
(16G	com-
16A)	.
(16G	mo
16F)	.
8F	-da
.	.
=325-	=325-
16A	et
8G	ce-
.	.
(16F	le
16G)	.
8G	-stem
.	.
8G	il-
.	.
16G	-li
16G	de
8G	thryyo-
.	.
16G	-no
16G	tu-
16G	-o
=326-	=326-
16F	con-
(16F	ce
16G)	.
8G	-de
.	.
16F	vic-
(16F	to
16G)	.
16G	ryyi
16G	-am
8G	cum
.	.
8G	om-
.	.
8F	-ni
.	.
=327-	=327-
(16G	po-
16A	.
16G	.
16A)	.
16G	.
8F	.
.	.
8A	pu
.	.
(16G	-lo
16A	.
8G)	.
.	.
8F	su-
.	.
16F	-o.
=328-	=328-
(16F	Peryy
16A)	.
16G	do-
16G	mi
8G	-num
8G	no-
.	.
8G	-stryyum
.	.
16G	ihe-
8F	-sum
.	.
(16F	chryyi-
16G)	.
16G	-stum
=329-	=329-
(16G	fi-
16A)	.
(16A	li
16G)	.
8F	-um
.	.
(16G	tu-
16A	.
16G)	.
16F	-um
8F	u-
.	.
8A	-na
8G	cum
=330-	=330-
8G	spi-
.	.
8G	ryyi
8G	-tu
.	.
8G	sanc-
.	.
8G	-to
.	.
8F	vi-
.	.
(16F	ven
16G)	.
8G	-tem
=331-	=331-
8G	te-
8G	-cum
(16G	at-
16A)	.
(16A	que
16G)	.
8F	ryyeg
(16G	nan
16A	.
16G)	.
16F	-tem
8F	peryy
.	.
=332-	=332-
8G	om-
8F	ni
8F	-a
8G	se-
8F	cu
(16G	-la
16A	.
16G	.
16A)	.
16G	.
16F	.
=333-	=333-
8A	se-
(16G	cu
16A	.
8G)	.
.	.
8F	lo
8F	-ryyum.
8E	A-
4F	-men.
.	.
=334-	=334-
1ryy	.
.	.
.	.
.	.
.	.
.	.
.	.
.	.
.	.
.	.
.	.
=335-	=335-
1ryy	.
.	.
.	.
.	.
.	.
.	.
.	.
.	.
=336-	=336-
1ryy	.
.	.
.	.
.	.
.	.
.	.
.	.
.	.
=337-	=337-
1ryy	.
.	.
.	.
.	.
.	.
.	.
.	.
=338-	=338-
1ryy	.
.	.
.	.
.	.
.	.
.	.
.	.
.	.
.	.
.	.
.	.
=339-	=339-
1ryy	.
.	.
.	.
.	.
.	.
.	.
.	.
.	.
.	.
=340-	=340-
1ryy	.
.	.
.	.
.	.
.	.
.	.
.	.
.	.
=341-	=341-
1ryy	.
.	.
.	.
.	.
.	.
.	.
.	.
.	.
.	.
.	.
=342-	=342-
1ryy	.
.	.
.	.
.	.
.	.
.	.
=343-	=343-
1ryy	.
.	.
.	.
.	.
.	.
.	.
.	.
.	.
.	.
=344-	=344-
1ryy	.
.	.
.	.
.	.
.	.
.	.
.	.
.	.
=345-	=345-
1ryy	.
.	.
.	.
.	.
.	.
.	.
.	.
.	.
=346-	=346-
1ryy	.
.	.
.	.
.	.
.	.
.	.
.	.
.	.
=347-	=347-
1ryy	.
.	.
.	.
.	.
.	.
.	.
.	.
.	.
.	.
.	.
.	.
=348-	=348-
1ryy	.
.	.
.	.
.	.
.	.
.	.
.	.
.	.
.	.
=349-	=349-
1ryy	.
.	.
.	.
.	.
.	.
.	.
=350-	=350-
1ryy	.
.	.
.	.
.	.
.	.
.	.
.	.
.	.
=351-	=351-
1ryy	.
.	.
.	.
.	.
.	.
.	.
.	.
.	.
.	.
.	.
=352-	=352-
1ryy	.
.	.
.	.
.	.
.	.
.	.
.	.
.	.
=353-	=353-
1ryy	.
.	.
.	.
.	.
.	.
.	.
.	.
=354-	=354-
1ryy	.
.	.
.	.
.	.
.	.
.	.
.	.
=355-	=355-
1ryy	.
.	.
.	.
.	.
.	.
.	.
.	.
.	.
=356-	=356-
1ryy	.
.	.
.	.
.	.
.	.
.	.
.	.
.	.
=357-	=357-
1ryy	.
.	.
.	.
.	.
.	.
.	.
.	.
.	.
.	.
=358-	=358-
1ryy	.
.	.
.	.
.	.
.	.
.	.
=359-	=359-
1ryy	.
.	.
.	.
.	.
.	.
.	.
.	.
=360-	=360-
1ryy	.
.	.
.	.
.	.
.	.
.	.
.	.
.	.
=361-	=361-
1ryy	.
.	.
.	.
.	.
.	.
.	.
.	.
.	.
=362-	=362-
1ryy	.
.	.
.	.
.	.
.	.
.	.
.	.
.	.
=363-	=363-
1ryy	.
.	.
.	.
.	.
=364-	=364-
1ryy	.
=365-	=365-
1ryy	.
=366-	=366-
1ryy	.
=367-	=367-
1ryy	.
=368-	=368-
1ryy	.
=369-	=369-
1ryy	.
==	==
*-	*-
!!!hum2abc: -p "%%nostems" -M none
!!!RWG: Rhythms and barlines are for alignment only, not found in source.
!!!YEC: Copyright 2009, Elsa De Luca
!!!title: @{OTL}, @{SMS}
